Sources/FrostedUI/Resources/Icons.xcassets/tag24.imageset/tag-24.svg

<svg width="24" height="24" viewBox="0 0 24 24" fill="none" xmlns="http://www.w3.org/2000/svg" data-fui-icon="true">
  <path
    d="M19.75 2C20.9926 2 22 3.00736 22 4.25V11.1289C21.9999 11.7256 21.7627 12.2978 21.3408 12.7197L12.1201 21.9404C11.4418 22.6187 10.5218 23 9.5625 23C8.60324 23 7.68318 22.6187 7.00488 21.9404L2.05957 16.9951C1.38127 16.3168 1 15.3968 1 14.4375C1 13.4782 1.38127 12.5582 2.05957 11.8799L11.2803 2.65918C11.7022 2.23728 12.2744 2.00006 12.8711 2H19.75ZM12.8711 3.5C12.6723 3.50006 12.4814 3.57913 12.3408 3.71973L3.12012 12.9404C2.72313 13.3374 2.5 13.8761 2.5 14.4375C2.5 14.9989 2.72313 15.5376 3.12012 15.9346L8.06543 20.8799C8.46242 21.2769 9.00107 21.5 9.5625 21.5C10.1239 21.5 10.6626 21.2769 11.0596 20.8799L20.2803 11.6592C20.4209 11.5186 20.4999 11.3277 20.5 11.1289V4.25C20.5 3.83579 20.1642 3.5 19.75 3.5H12.8711ZM16.5 5C17.8807 5 19 6.11929 19 7.5C19 8.88071 17.8807 10 16.5 10C15.1193 10 14 8.88071 14 7.5C14 6.11929 15.1193 5 16.5 5ZM16.5 6.5C15.9477 6.5 15.5 6.94772 15.5 7.5C15.5 8.05228 15.9477 8.5 16.5 8.5C17.0523 8.5 17.5 8.05228 17.5 7.5C17.5 6.94772 17.0523 6.5 16.5 6.5Z"
    fill="currentColor"
  />
</svg>

<svg xmlns="http://www.w3.org/2000/svg" width="24" height="24" fill="none" data-fui-icon="true" viewBox="0 0 24 24"><path fill="currentColor" d="M19.75 2A2.25 2.25 0 0 1 22 4.25v6.879a2.25 2.25 0 0 1-.66 1.59l-9.22 9.221a3.617 3.617 0 0 1-5.115 0L2.06 16.995a3.617 3.617 0 0 1 0-5.115l9.22-9.22A2.25 2.25 0 0 1 12.871 2zm-6.879 1.5a.75.75 0 0 0-.53.22l-9.22 9.22a2.12 2.12 0 0 0 0 2.995l4.944 4.945a2.117 2.117 0 0 0 2.995 0l9.22-9.22a.75.75 0 0 0 .22-.531V4.25a.75.75 0 0 0-.75-.75zM16.5 5a2.5 2.5 0 1 1 0 5 2.5 2.5 0 0 1 0-5m0 1.5a1 1 0 1 0 0 2 1 1 0 0 0 0-2"/></svg>
